usr/share/icons/biglinux-icons-material/24/actions/align-vertical-top.svg

<svg xmlns="http://www.w3.org/2000/svg" viewBox="0 0 24 24"><path d="M4 4v1h16V4H4zm0 3v6h6V7H4zm10 0v13h6V7h-6zM5 8h4v4H5V8zm10 0h4v11h-4V8z" style="fill:currentColor;fill-opacity:1;stroke:none;color:#dedede"/></svg>

<svg xmlns="http://www.w3.org/2000/svg" viewBox="0 0 24 24">
  <defs id="defs3051">
    <style type="text/css" id="current-color-scheme">
      .ColorScheme-Text {
        color:#dedede;
      }
      </style>
  </defs>
 <path style="fill:currentColor;fill-opacity:1;stroke:none" 
     d="M 4 4 L 4 5 L 20 5 L 20 4 L 4 4 z M 4 7 L 4 13 L 10 13 L 10 7 L 4 7 z M 14 7 L 14 20 L 20 20 L 20 7 L 14 7 z M 5 8 L 9 8 L 9 12 L 5 12 L 5 8 z M 15 8 L 19 8 L 19 19 L 15 19 L 15 8 z "
     class="ColorScheme-Text"
     />
</svg>
